build/img/icon__wish.svg

<svg width="27" height="27" viewBox="0 0 27 27" fill="none" xmlns="http://www.w3.org/2000/svg">
<path d="M19.459 1.61469C17.1011 1.61469 14.9148 2.7075 13.5 4.53279C12.0852 2.7075 9.89882 1.61469 7.54102 1.61469C3.38286 1.61469 0 4.99754 0 9.1557C0 11.0142 0.682014 12.7996 1.92037 14.1833C3.15199 15.5593 13.5245 25.3853 13.5245 25.3853C13.5245 25.3853 23.8167 15.5942 25.0796 14.1833C26.318 12.7996 27 11.0142 27 9.1557C27 4.99754 23.6171 1.61469 19.459 1.61469ZM3.0992 13.1282C2.12082 12.0351 1.58203 10.6243 1.58203 9.1557C1.58203 5.86988 4.25519 3.19672 7.54102 3.19672C9.74663 3.19672 11.7626 4.40708 12.8021 6.35551L13.5 7.66358L14.1979 6.35545C15.2374 4.40708 17.2533 3.19672 19.459 3.19672C22.7448 3.19672 25.418 5.86988 25.418 9.1557C25.418 10.6243 24.8792 12.0351 23.9008 13.1282C22.8611 14.2898 15.5693 21.2715 13.4998 23.2495C10.8735 20.7407 4.0732 14.2164 3.0992 13.1282Z" fill="#0B9EC7"/>
<path d="M7.91658 12.0302L6.17877 10.3182C5.78764 9.93482 5.57227 9.42208 5.57227 8.87454C5.57227 7.75989 6.47909 6.85307 7.59374 6.85307V5.27104C5.60676 5.27104 3.99023 6.88756 3.99023 8.87454C3.99023 9.85065 4.37419 10.7646 5.06992 11.4466L6.80636 13.1573L7.91658 12.0302Z" fill="#0B9EC7"/>
<path d="M7.92969 14.2732L9.04027 13.1468L10.1717 14.2624L9.06116 15.3888L7.92969 14.2732Z" fill="#0B9EC7"/>
</svg>

<svg width="27" height="27" fill="none" xmlns="http://www.w3.org/2000/svg"><path d="M19.459 1.615A7.53 7.53 0 0013.5 4.533a7.53 7.53 0 00-5.959-2.918C3.383 1.615 0 4.998 0 9.155c0 1.86.682 3.645 1.92 5.028 1.232 1.376 11.604 11.202 11.604 11.202s10.293-9.79 11.556-11.202A7.528 7.528 0 0027 9.156c0-4.158-3.383-7.541-7.541-7.541zM3.099 13.128a5.948 5.948 0 01-1.517-3.972 5.966 5.966 0 015.959-5.96 5.954 5.954 0 015.261 3.16l.698 1.308.698-1.309a5.954 5.954 0 015.261-3.158 5.966 5.966 0 015.959 5.959c0 1.468-.539 2.88-1.517 3.972-1.04 1.162-8.332 8.143-10.401 10.122-2.627-2.51-9.427-9.034-10.4-10.122z" fill="#0B9EC7"/><path d="M7.917 12.03l-1.738-1.712a2.024 2.024 0 011.415-3.465V5.271A3.608 3.608 0 003.99 8.875c0 .976.384 1.89 1.08 2.572l1.736 1.71 1.11-1.127zm.013 2.243l1.11-1.126 1.132 1.115-1.11 1.127-1.132-1.116z" fill="#0B9EC7"/></svg>
